X:1
T:Kost ar c'hoat : Leuelan, Leskoed (TBI 1417)
Z:Roger Ngaret (Novembre 99)
C:Trad.
S:Tonio Breizh-Izel (Polig Monjarret)
A:Bretagne
M:4/4
Q:70
K:Eb
ED EF GF G>F | EC DE F2 G2 | ED EF GF G2 |1
E/F/E CC B,2 C2 :|2 E/F/E C/B,/C/D/ B,2 C2 |: GA/G/ B>A G/F/G ED/E/ |
FF cc B2 G2 | G/F/G B>A G/A/G E2 | F/E/F GF E2 C2 :|
